X:1
T:The De'il's Awa' Wi' the Exciseman
M:6/8
L:1/8
K:F
 F| F2 cc-d c| B2 AG-A B| c2 F F2 G/2G/2| A2 c c2 F| F2 cc-d c| B2 A G2A/2-B/2|\
 c2 F FFG| A2- c c2 c|A-G AF-G A|G-F G C2 C| F2 F F2 G/2G/2| A2 A c2c/2-B/2|\
A-G AF-G A|G-F G C2 e| f2 F F2 G/2G/2| A2 A c2||
